map_marker_monochrome/openmoji_horizontal_full_hexagon.svg

<svg xmlns="http://www.w3.org/2000/svg" width="24" height="24" viewBox="0 0 24 24"> <g transform="translate(0.0 1.4437496065641913) scale(0.4138026565820201)">
  
  <g
     id="line-supplement"
     transform="translate(-7.0006698,-10.4897)">
    <path
       fill="#000"
       d="m 8.2613,36.976 c -0.3484,-0.6041 -0.3484,-1.3477 0,-1.9518 L 21.286,12.4657 c 0.3484,-0.6041 0.9925,-0.976 1.6903,-0.976 h 26.0474 c 0.6978,0 1.3419,0.3719 1.6903,0.976 l 13.0247,22.5585 c 0.3484,0.6041 0.3484,1.3477 0,1.9518 L 50.714,59.5345 c -0.3484,0.6041 -0.9925,0.9759 -1.6903,0.9759 H 22.9763 c -0.6978,0 -1.3419,-0.3718 -1.6903,-0.9759 z"
       id="path2" />
  </g>
  <g
     id="line"
     transform="translate(-7.0006698,-10.4897)">
    <path
       fill="none"
       stroke="#000"
       stroke-width="2"
       d="m 8.2613,36.976 c -0.3484,-0.6041 -0.3484,-1.3477 0,-1.9518 L 21.286,12.4657 c 0.3484,-0.6041 0.9925,-0.976 1.6903,-0.976 h 26.0474 c 0.6978,0 1.3419,0.3719 1.6903,0.976 l 13.0247,22.5585 c 0.3484,0.6041 0.3484,1.3477 0,1.9518 L 50.714,59.5345 c -0.3484,0.6041 -0.9925,0.9759 -1.6903,0.9759 H 22.9763 c -0.6978,0 -1.3419,-0.3718 -1.6903,-0.9759 z"
       id="path5" />
  </g>
</g></svg>

<svg xmlns="http://www.w3.org/2000/svg" width="24" height="24" viewBox="0 0 24 24"> <g transform="scale(0.333333333)">  <g id="line-supplement">
    <path fill="#000" d="M8.2613 36.976C7.9129 36.3719 7.9129 35.6283 8.2613 35.0242L21.286 12.4657C21.6344 11.8616 22.2785 11.4897 22.9763 11.4897H49.0237C49.7215 11.4897 50.3656 11.8616 50.714 12.4657L63.7387 35.0242C64.0871 35.6283 64.0871 36.3719 63.7387 36.976L50.714 59.5345C50.3656 60.1386 49.7215 60.5104 49.0237 60.5104H22.9763C22.2785 60.5104 21.6344 60.1386 21.286 59.5345L8.2613 36.976Z"/>
  </g>
  <g id="line">
    <path fill="none" stroke="#000" stroke-width="2" d="M8.2613 36.976C7.9129 36.3719 7.9129 35.6283 8.2613 35.0242L21.286 12.4657C21.6344 11.8616 22.2785 11.4897 22.9763 11.4897H49.0237C49.7215 11.4897 50.3656 11.8616 50.714 12.4657L63.7387 35.0242C64.0871 35.6283 64.0871 36.3719 63.7387 36.976L50.714 59.5345C50.3656 60.1386 49.7215 60.5104 49.0237 60.5104H22.9763C22.2785 60.5104 21.6344 60.1386 21.286 59.5345L8.2613 36.976Z"/>
  </g></g></svg>
